img/svg-icons/spectacles.svg

<svg xmlns="http://www.w3.org/2000/svg" id="spectacles" viewBox="0 0 61.2 18.8"><path d="M52.55 6.1a8.91 8.91 0 0 0-8.7-6 9.56 9.56 0 0 0-7.6 3.9 6.57 6.57 0 0 0-5.9-4 6.43 6.43 0 0 0-4.1 1.5 7.9 7.9 0 0 0-1.9 2.5 9.29 9.29 0 0 0-7.6-3.9 8.74 8.74 0 0 0-8.7 6H0V8h7.55a7.08 7.08 0 0 0-.1 1.4 9.4 9.4 0 1 0 18.8 0 14.92 14.92 0 0 0-.2-2.1v-.9a4.5 4.5 0 0 1 9 0v.9a7.49 7.49 0 0 0-.2 2.1 9.4 9.4 0 0 0 18.8.1c0-.5-.1-.8-.1-1.4h7.65v-2h-8.65zm-35.9 10.8a7.4 7.4 0 1 1 7.4-7.4 7.38 7.38 0 0 1-7.4 7.4zm27.1 0a7.4 7.4 0 1 1 7.4-7.4 7.38 7.38 0 0 1-7.4 7.4z"/></svg>

<svg id="spectacles" xmlns="http://www.w3.org/2000/svg" width="61.2" height="18.8" viewBox="0 0 61.2 18.8"><title>spectacles</title><path d="M52.55,6.1a8.91,8.91,0,0,0-8.7-6A9.56,9.56,0,0,0,36.25,4a6.57,6.57,0,0,0-5.9-4,6.43,6.43,0,0,0-4.1,1.5A7.9,7.9,0,0,0,24.35,4,9.29,9.29,0,0,0,16.75.1a8.74,8.74,0,0,0-8.7,6H0V8H7.55a7.08,7.08,0,0,0-.1,1.4,9.4,9.4,0,1,0,18.8,0,14.92,14.92,0,0,0-.2-2.1V6.4a4.5,4.5,0,0,1,9,0V7.3a7.49,7.49,0,0,0-.2,2.1,9.4,9.4,0,0,0,18.8.1c0-.5-0.1-0.8-0.1-1.4H61.2v-2H52.55ZM16.65,16.9a7.4,7.4,0,1,1,7.4-7.4A7.38,7.38,0,0,1,16.65,16.9Zm27.1,0a7.4,7.4,0,1,1,7.4-7.4A7.38,7.38,0,0,1,43.75,16.9Z" transform="translate(0 0)"  /></svg>
